X: 1
T: Birnam Triangle, The
M: 6/8
L: 1/8
R: jig
K: Gmaj
|:GGG AGE|DGG BGd|BGE DGG|
BcA AGF|FGA Ddc|BcA BGG:|
|:dBG GBd|dBG cAA|FGA BcA|
FGA DGG|AGE Ddc|BcA BGG:|
|:DGG FGE|DGG GDD|BDG BcA|
FGA ABc|ddc BcA|BGG FGA:|
